X: 22302
T: La Ronfleuse Gobeil
R: reel
M: 4/4
K: Dmajor
a2fd Adfa|gece fddf|a2fd Adfa|gece d4:|
A2f2 {g}fef2|B2g2 {a}gfg2|A2c2 efec|dcde (3fga fd|
A2f2 {g}fef2|B2g2 {a}gfg2|A3c efec|d2 [d2e2] [d4f4]|
|:faab afde|fdad bdfd|efga bgef|gebe geeg|
fgaf bfaf|defd efde|fBBA BcdB|AFEF D4:|

